picto/bus-right.svg

<svg class="color-immutable" width="24" height="24" viewBox="0 0 24 24" fill="none" xmlns="http://www.w3.org/2000/svg"><g clip-path="url(#a)"><path d="M0 22.5v-21C0 .675.675 0 1.5 0h21c.825 0 1.5.675 1.5 1.5v21c0 .825-.675 1.5-1.5 1.5h-21C.675 24 0 23.325 0 22.5Z" fill="#2D327D"/><path d="M6.375 8.25H3V7.5h15.074c.611 0 1.145.41 1.304 1l1.576 5.869c.031.114.046.232.046.35v3.806a.6.6 0 0 1-.6.6h-6.976a.6.6 0 0 1-.6-.6v-.011l.001-.064A3.452 3.452 0 0 0 9.375 15a3.452 3.452 0 0 0-3.449 3.514v.011a.6.6 0 0 1-.6.6H3V13.5h3.375a.375.375 0 0 0 .375-.375v-4.5a.375.375 0 0 0-.375-.375Zm11.063 6.375c0 .207.168.375.375.375h2.045a.375.375 0 0 0 .362-.472L18.634 8.62a.6.6 0 0 0-.58-.444h-.016a.6.6 0 0 0-.6.6v5.849Zm-1.95-.15a.6.6 0 0 0 1.2 0v-5.7a.6.6 0 0 0-1.2 0v5.7Zm-1.95 0a.6.6 0 0 0 1.2 0v-5.7a.6.6 0 0 0-1.2 0v5.7ZM7.5 13.125c0 .207.168.375.375.375h4.537a.375.375 0 0 0 .375-.375v-4.5a.375.375 0 0 0-.375-.375H7.875a.375.375 0 0 0-.375.375v4.5Z" fill="#fff"/><path d="M9.351 15.847a2.626 2.626 0 0 1 0 5.25 2.626 2.626 0 0 1 0-5.25Zm0 4.069a1.5 1.5 0 1 0-.001-3.001 1.5 1.5 0 0 0 .001 3.001Z" fill="#fff"/></g><defs><clipPath id="a"><path fill="#fff" d="M0 0h24v24H0z"/></clipPath></defs></svg>

<svg class="color-immutable" width="24" height="24" viewBox="0 0 24 24" fill="none" xmlns="http://www.w3.org/2000/svg"><path d="M0 22.5V1.5C0 0.675 0.675 0 1.5 0H22.5C23.325 0 24 0.675 24 1.5V22.5C24 23.325 23.325 24 22.5 24H1.5C0.675 24 0 23.325 0 22.5Z" fill="#2D327D"/><path d="M6.375 8.25H3V7.5H18.074C18.685 7.5 19.219 7.91 19.378 8.5L20.954 14.369C20.985 14.483 21 14.601 21 14.719V18.525C21 18.856 20.731 19.125 20.4 19.125H13.424C13.093 19.125 12.824 18.856 12.824 18.525C12.824 18.521 12.824 18.518 12.824 18.514C12.825 18.493 12.825 18.471 12.825 18.45C12.825 16.546 11.279 15 9.375 15C7.471 15 5.925 16.546 5.925 18.45C5.925 18.471 5.925 18.493 5.926 18.514C5.926 18.518 5.926 18.521 5.926 18.525C5.926 18.856 5.657 19.125 5.326 19.125H3V13.5H6.375C6.582 13.5 6.75 13.332 6.75 13.125V8.625C6.75 8.418 6.582 8.25 6.375 8.25ZM17.438 14.625C17.438 14.832 17.606 15 17.813 15H19.858C20.065 15 20.233 14.832 20.233 14.625C20.233 14.592 20.229 14.559 20.22 14.528L18.634 8.62C18.564 8.358 18.326 8.176 18.054 8.176H18.038C17.707 8.176 17.438 8.445 17.438 8.776V14.625ZM15.488 14.475C15.488 14.806 15.757 15.075 16.088 15.075C16.419 15.075 16.688 14.806 16.688 14.475V8.775C16.688 8.444 16.419 8.175 16.088 8.175C15.757 8.175 15.488 8.444 15.488 8.775V14.475ZM13.538 14.475C13.538 14.806 13.807 15.075 14.138 15.075C14.469 15.075 14.738 14.806 14.738 14.475V8.775C14.738 8.444 14.469 8.175 14.138 8.175C13.807 8.175 13.538 8.444 13.538 8.775V14.475ZM7.5 13.125C7.5 13.332 7.668 13.5 7.875 13.5H12.412C12.619 13.5 12.787 13.332 12.787 13.125V8.625C12.787 8.418 12.619 8.25 12.412 8.25H7.875C7.668 8.25 7.5 8.418 7.5 8.625V13.125Z" fill="white"/><path d="M9.35101 15.847C10.8 15.847 11.976 17.023 11.976 18.472C11.976 19.921 10.8 21.097 9.35101 21.097C7.90201 21.097 6.72601 19.921 6.72601 18.472C6.72701 17.023 7.90201 15.847 9.35101 15.847ZM9.35101 19.916C10.179 19.916 10.851 19.244 10.851 18.416C10.851 17.588 10.179 16.916 9.35101 16.916C8.52301 16.916 7.85101 17.588 7.85101 18.416C7.85201 19.244 8.52401 19.916 9.35101 19.916Z" fill="white"/></svg>
